assets/features/payment-flow/Australian.svg

<svg width="30" height="20" viewBox="0 0 30 20" fill="none" xmlns="http://www.w3.org/2000/svg">
<g clip-path="url(#clip0_1202_5323)">
<path d="M0 0H30V20H0V0Z" fill="#012169"/>
<mask id="mask0_1202_5323" style="mask-type:luminance" maskUnits="userSpaceOnUse" x="0" y="0" width="15" height="10">
<path d="M0 0H15V10H0V0Z" fill="white"/>
</mask>
<g mask="url(#mask0_1202_5323)">
<path d="M0 0L15 10L0 0ZM15 0L0 10L15 0Z" fill="black"/>
<path d="M15.3354 0.894348L9.17702 4.99991L15.3354 9.10547L14.6646 10.8943L7.49995 6.11795L0.335358 10.8943L-0.335449 9.10547L5.82289 4.99991L-0.335449 0.894348L0.335358 -0.894531L7.49995 3.88187L14.6646 -0.894531L15.3354 0.894348Z" fill="white"/>
</g>
<mask id="mask1_1202_5323" style="mask-type:luminance" maskUnits="userSpaceOnUse" x="0" y="0" width="15" height="10">
<path d="M0 0V5H15V10L0 0ZM15 0H7.5V10H0L15 0Z" fill="white"/>
</mask>
<g mask="url(#mask1_1202_5323)">
<path d="M0 0L15 10L0 0ZM15 0L0 10L15 0Z" fill="black"/>
<path d="M15.2236 0.596375L8.61803 5.00009L15.2236 9.40381L14.7764 10.5964L7.49998 5.74542L0.223602 10.5964L-0.223633 9.40381L6.38194 5.00009L-0.223633 0.596375L0.223602 -0.596191L7.49998 4.25473L14.7764 -0.596191L15.2236 0.596375Z" fill="#E4002B"/>
</g>
<path d="M7.5 0V10V0ZM0 5H15H0Z" fill="black"/>
<path d="M8.74999 0V3.33334H15V6.66666H8.74999V10H6.25001V6.66666H0V3.33334H6.25001V0H8.74999Z" fill="white"/>
<path d="M7.5 0V10V0ZM0 5H15H0Z" fill="black"/>
<path d="M8.25 0V4H15V6H8.25V10H6.75V6H0V4H6.75V0H8.25Z" fill="#E4002B"/>
<path d="M7.50023 12L7.93411 13.7987L9.25935 13.1295L8.47517 14.7033L9.69382 15.6676L8.28207 15.8313L8.47647 17.7029L7.50023 16.3333L6.52399 17.7029L6.7184 15.8313L5.30664 15.6676L6.5253 14.7033L5.74111 13.1295L7.06635 13.7987L7.50023 12Z" fill="white"/>
<path d="M22.5001 15.2383L22.7067 16.0948L23.3378 15.7762L22.9644 16.5256L23.5447 16.9847L22.8724 17.0627L22.965 17.9539L22.5001 17.3018L22.0353 17.954L22.1278 17.0627L21.4556 16.9847L22.0359 16.5256L21.6625 15.7762L22.2935 16.0948L22.5001 15.2383Z" fill="white"/>
<path d="M18.7501 7.32129L18.9567 8.17782L19.5878 7.85916L19.2144 8.60858L19.7947 9.06775L19.1224 9.14573L19.215 10.037L18.7501 9.38478L18.2853 10.037L18.3778 9.14573L17.7056 9.06775L18.2859 8.60858L17.9125 7.85916L18.5435 8.17782L18.7501 7.32129Z" fill="white"/>
<path d="M22.5001 1.90479L22.7067 2.76131L23.3378 2.44266L22.9644 3.19207L23.5447 3.65124L22.8724 3.72922L22.965 4.62045L22.5001 3.96828L22.0353 4.62046L22.1278 3.72923L21.4556 3.65125L22.0359 3.19207L21.6625 2.44266L22.2935 2.76131L22.5001 1.90479Z" fill="white"/>
<path d="M25.8336 5.98828L26.0402 6.84481L26.6713 6.52615L26.2979 7.27557L26.8782 7.73474L26.2059 7.81272L26.2985 8.70395L25.8336 8.05177L25.3688 8.70395L25.4613 7.81272L24.7891 7.73474L25.3694 7.27557L24.996 6.52615L25.627 6.84481L25.8336 5.98828Z" fill="white"/>
<path d="M24.0002 10L24.1634 10.5337L24.5946 10.5758L24.2644 10.9478L24.3675 11.5075L24.0002 11.2037L23.6328 11.5075L23.736 10.9478L23.4058 10.5758L23.8369 10.5337L24.0002 10Z" fill="white"/>
</g>
<rect x="0.2" y="0.2" width="29.6" height="19.6" rx="3.8" stroke="#8D8D8D" stroke-width="0.4"/>
<defs>
<clipPath id="clip0_1202_5323">
<rect width="30" height="20" rx="4" fill="white"/>
</clipPath>
</defs>
</svg>

<svg xmlns="http://www.w3.org/2000/svg" width="30" height="20" fill="none" viewBox="0 0 30 20"><g clip-path="url(#a)"><path fill="#012169" d="M0 0h30v20H0z"/><mask id="b" width="15" height="10" x="0" y="0" maskUnits="userSpaceOnUse" style="mask-type:luminance"><path fill="#fff" d="M0 0h15v10H0z"/></mask><g mask="url(#b)"><path fill="#000" d="m0 0 15 10zm15 0L0 10z"/><path fill="#fff" d="M15.335.894 9.177 5l6.158 4.105-.67 1.79L7.5 6.117.335 10.894l-.67-1.789L5.823 5-.335.894l.67-1.789L7.5 3.882l7.165-4.777z"/></g><mask id="c" width="15" height="10" x="0" y="0" maskUnits="userSpaceOnUse" style="mask-type:luminance"><path fill="#fff" d="M0 0v5h15v5zm15 0H7.5v10H0z"/></mask><g mask="url(#c)"><path fill="#000" d="m0 0 15 10zm15 0L0 10z"/><path fill="#e4002b" d="M15.224.596 8.618 5l6.606 4.404-.448 1.192L7.5 5.746l-7.276 4.85-.448-1.192L6.382 5-.224.596.224-.596 7.5 4.254l7.276-4.85z"/></g><path fill="#000" d="M7.5 0v10zM0 5h15z"/><path fill="#fff" d="M8.75 0v3.333H15v3.334H8.75V10h-2.5V6.667H0V3.333h6.25V0z"/><path fill="#000" d="M7.5 0v10zM0 5h15z"/><path fill="#e4002b" d="M8.25 0v4H15v2H8.25v4h-1.5V6H0V4h6.75V0z"/><path fill="#fff" d="m7.5 12 .434 1.799 1.325-.67-.784 1.574 1.219.965-1.412.163.194 1.872-.976-1.37-.976 1.37.194-1.872-1.411-.163 1.218-.965-.784-1.573 1.325.669zm15 3.238.207.857.63-.319-.373.75.58.459-.672.078.093.89-.465-.651-.465.652.093-.891-.672-.078.58-.46-.373-.749.63.319zm-3.75-7.917.207.857.63-.319-.373.75.58.459-.672.078.093.891-.465-.652-.465.652.093-.891-.672-.078.58-.46-.373-.749.63.319zm3.75-5.416.207.856.63-.318-.373.75.58.458-.672.078.093.891-.465-.652-.465.652.093-.89-.672-.079.58-.459-.373-.75.63.32zm3.334 4.083.206.857.631-.319-.373.75.58.459-.672.078.093.891-.465-.652-.465.652.092-.891-.672-.078.58-.46-.373-.749.631.319zM24 10l.163.534.432.042-.33.372.102.56-.367-.304-.367.303.103-.56-.33-.371.43-.042z"/></g><rect width="29.6" height="19.6" x=".2" y=".2" stroke="#8d8d8d" stroke-width=".4" rx="3.8"/><defs><clipPath id="a"><rect width="30" height="20" fill="#fff" rx="4"/></clipPath></defs></svg>
